optimized/outline/mail-open.svg

<svg xmlns="http://www.w3.org/2000/svg" fill="none" viewBox="0 0 24 24" stroke-width="2" stroke="currentColor" aria-hidden="true">
  <path stroke-linecap="round" stroke-linejoin="round" d="M3 19V10.0704C3 9.40165 3.3342 8.77718 3.8906 8.40625L10.8906 3.73959C11.5624 3.29172 12.4376 3.29172 13.1094 3.73959L20.1094 8.40625C20.6658 8.77718 21 9.40165 21 10.0704V19M3 19C3 20.1046 3.89543 21 5 21H19C20.1046 21 21 20.1046 21 19M3 19L9.75 14.5M21 19L14.25 14.5M3 9.99999L9.75 14.5M21 9.99999L14.25 14.5M14.25 14.5L13.1094 15.2604C12.4376 15.7083 11.5624 15.7083 10.8906 15.2604L9.75 14.5"/>
</svg>

<svg xmlns="http://www.w3.org/2000/svg" fill="none" viewBox="0 0 24 24" stroke-width="2" stroke="currentColor" aria-hidden="true">
  <path stroke-linecap="round" stroke-linejoin="round" d="M3 19v-8.93a2 2 0 01.89-1.664l7-4.666a2 2 0 012.22 0l7 4.666A2 2 0 0121 10.07V19M3 19a2 2 0 002 2h14a2 2 0 002-2M3 19l6.75-4.5M21 19l-6.75-4.5M3 10l6.75 4.5M21 10l-6.75 4.5m0 0l-1.14.76a2 2 0 01-2.22 0l-1.14-.76"/>
</svg>
